icons/1_Primary/Codeanywhere.svg

<svg xmlns="http://www.w3.org/2000/svg" width="1024" height="1024" fill="none">
   <g clip-path="url(#a)">
      <path fill="#8C72BD" d="M512 1024c282.77 0 512-229.23 512-512S794.77 0 512 0 0 229.23 0 512s229.23 512 512 512Z"/>
      <path fill="#fff" d="M753.5 405.72v231.03L572.16 757.5c-28.85 19.23-52.22 6.68-52.22-27.95V592.6c0-17.31 11.69-39.15 26.13-48.74L753.5 405.71v.01Zm-483 0 207.43 138.15c14.42 9.58 26.13 31.43 26.13 48.74v136.95c0 34.63-23.39 47.18-52.22 27.95L270.5 636.76V405.72Zm276.37-148.24c7.49 0 16.11 2.89 25.28 8.99l181.34 120.75-173.48 115.54-33.96-22.61c-14.44-9.62-26.12-31.44-26.12-48.78V294.42c0-23.61 10.87-36.94 26.93-36.94h.01Zm-69.74 0c16.06 0 26.93 13.34 26.93 36.94v136.95c0 17.35-11.7 39.16-26.13 48.78l-33.95 22.61-173.49-115.54 181.34-120.75c9.17-6.1 17.79-8.99 25.29-8.99h.01Z"/>
   </g>
   <defs>
      <clipPath id="a">
         <path fill="#fff" d="M0 0h1024v1024H0z"/>
      </clipPath>
   </defs>
</svg>

<svg width="1024" height="1024" viewBox="0 0 1024 1024" fill="none" xmlns="http://www.w3.org/2000/svg">
<g clip-path="url(#clip0_2_1833)">
<path d="M512 1024C794.77 1024 1024 794.77 1024 512C1024 229.23 794.77 0 512 0C229.23 0 0 229.23 0 512C0 794.77 229.23 1024 512 1024Z" fill="#8C72BD"/>
<path d="M753.5 405.72V636.75L572.16 757.5C543.31 776.73 519.94 764.18 519.94 729.55V592.6C519.94 575.29 531.63 553.45 546.07 543.86L753.5 405.71V405.72ZM270.5 405.72L477.93 543.87C492.35 553.45 504.06 575.3 504.06 592.61V729.56C504.06 764.19 480.67 776.74 451.84 757.51L270.5 636.76V405.73V405.72ZM546.87 257.48C554.36 257.48 562.98 260.37 572.15 266.47L753.49 387.22L580.01 502.76L546.05 480.15C531.61 470.53 519.93 448.71 519.93 431.37V294.42C519.93 270.81 530.8 257.48 546.86 257.48H546.87ZM477.13 257.48C493.19 257.48 504.06 270.82 504.06 294.42V431.37C504.06 448.72 492.36 470.53 477.93 480.15L443.98 502.76L270.49 387.22L451.83 266.47C461 260.37 469.62 257.48 477.12 257.48H477.13Z" fill="white"/>
</g>
<defs>
<clipPath id="clip0_2_1833">
<rect width="1024" height="1024" fill="white"/>
</clipPath>
</defs>
</svg>
